X: 987
T: Haste to the Wedding
T: Deun Deifir Go De An Posga
R:double jig
S:987 O'Neill's Music of Ireland
B:O'Neill's 987
Z:Transcribed by Robert Thorpe (thorpe@skep.com)
Z:ABCMUS 1.0
M:6/8
K:D
A|AFA Agf|ede fdB|AFA AdF|EFE E2 A|
|AFA Agf|ede fdB|A2 g g<-ag|ded d2:|
a|afa afa|bgb bfb|afa agf|efe dfg|
a3 f3|ede fdB|A2 g f<-ag|ded d2:|


